app/dist/common/images/forum-energy-technologies.svg

<svg height="18" width="18" xmlns="http://www.w3.org/2000/svg"><path d="m0 0h18v18h-18z" fill="#003852"/><path d="m15 6h-3.46l-.76 1h1.81v5h1v-5h1.41z" fill="#fff"/><path d="m11 6h-3.28l-.72 1v4a1 1 0 0 0 1 1h2.21l.79-1h-3v-1.5h2.21l.6-1h-2.81v-1.5h2.28zm-8 1a1 1 0 0 1 1-1h3.22l-.7 1h-2.52v1.5h1.58l-.56 1h-1.02v2.5h-1z" fill="#fff"/><path d="m6.06 8.28.8 1.44h-1.6z" fill="#2fcbd5"/><path d="m11.29 8.28.8 1.44h-1.61l.8-1.44z" fill="#66bc29"/></svg>

<!-- by TradingView --><svg xmlns="http://www.w3.org/2000/svg" width="18" height="18"><path fill="#003852" d="M0 0h18v18H0z"/><path d="M15 6h-3.46l-.76 1h1.81v5h1V7H15V6z" fill="#fff"/><path d="M11 6H7.72L7 7v4a1 1 0 001 1h2.21l.79-1H8V9.5h2.21l.6-1H8V7h2.28L11 6zM3 7a1 1 0 011-1h3.22l-.7 1H4v1.5h1.58l-.56 1H4V12H3V7z" fill="#fff"/><path d="M6.06 8.28l.8 1.44h-1.6l.8-1.44z" fill="#2FCBD5"/><path d="M11.29 8.28l.8 1.44h-1.61l.8-1.44z" fill="#66BC29"/></svg>
